X:19
T:Divel Among the Taylors. LIT.019
T:Devil Among the Tailors,aka. LIT.019
M:2/4
Q:1/4=140
L:1/8
B:Wm. Litten MS, 1802
Z:Village Music Project 2017 Anne Wride
K:D
G2 |: FG Af | gf ed | gf ed | Bc/d/ BG |
FG Af | gf ed | ge dc | d2d2 :|
|:FGAA/d/ | A2F2 | GBBd/B/ | G4 |
FGAA/d/ | A2F2 | GE AF | D2 D2 :|

